X: 29
T:Johnny's So Long at the Fair (Bampton) (ALP)
T:Oh Dear, What Can the Matter Be (Bampton) (ALP)
M:6/8
L:1/8
O:England; Oxfordshire; Bampton.
B:Lionel Bacon, A Handbook of Morris Dances
Z:http://www.themorrisring.org/music/handbook-morris-dances
P:A(AB2)4
Q:100
K:G
P:A
D|G>AG G>Bd|e>ge d>BG|A>GA B>AG |E>FE E2D|
G>FG G>Bd|e>ge d>BG|A>BA E2{FE}D|D>EF G2 ||
P:B
z|d>ed d>Bc|d>ge d>BG|{cd}c2c {cd}c>Ac|c>AB c>BA|
d>ed d>Bc|d>ge d>BG|A>cB A>GF|G3 G2||

